icon-themes/sifr_svg/cmd/lc_protect.svg

<svg viewBox="0 0 24 24" xmlns="http://www.w3.org/2000/svg"><path d="m12 2c-2.7614237 0-5 2.2385763-5 5v5h-4v10h18v-10h-4v-5c0-2.7614237-2.238576-5-5-5zm0 2c1.656854 0 3 1.3431458 3 3v5h-6v-5c0-1.6568542 1.343146-3 3-3zm-7 10h14v6h-14z" fill="#555753"/></svg>

<svg xmlns="http://www.w3.org/2000/svg" viewBox="0 0 24 24">
  <path
     style="fill:#555753"
     d="M 12 2 C 9.2385763 2 7 4.2385763 7 7 L 7 12 L 3 12 L 3 22 L 21 22 L 21 12 L 17 12 L 17 7 C 17 4.2385763 14.761424 2 12 2 z M 12 4 C 13.656854 4 15 5.3431458 15 7 L 15 12 L 9 12 L 9 7 C 9 5.3431458 10.343146 4 12 4 z M 5 14 L 19 14 L 19 20 L 5 20 L 5 14 z "
     />
</svg>
